Assets/Svg/Brain--Streamline-Core.svg

<svg width="39" height="39" viewBox="0 0 39 39" fill="none" xmlns="http://www.w3.org/2000/svg">
<path d="M12.8688 4.00684C16.5307 4.00684 19.4992 6.97538 19.4992 10.6372L19.499 28.662C19.499 32.8528 16.1016 36.2503 11.9106 36.2503C7.71962 36.2503 4.32216 32.8528 4.32216 28.662C4.32216 28.4472 4.3311 28.2347 4.3486 28.0243C2.76928 26.3277 1.77283 23.009 1.77283 20.2399C1.77283 16.4667 3.62298 12.798 6.27695 11.356C6.25149 11.1199 6.23843 10.8801 6.23843 10.6372C6.23843 6.97538 9.20697 4.00684 12.8688 4.00684Z" stroke="#FEBC11" stroke-width="2.30816" stroke-linecap="round" stroke-linejoin="round"/>
<path d="M9.78085 15.8624C8.80729 15.6405 6.60118 14.1937 6.26831 11.373" stroke="#FEBC11" stroke-width="2.30816" stroke-linecap="round" stroke-linejoin="round"/>
<path d="M13.8451 23.3017C17.8217 22.8578 19.3976 18.6611 19.5 16.9541" stroke="#FEBC11" stroke-width="2.30816" stroke-linecap="round" stroke-linejoin="round"/>
<path d="M6.37788 24.0459C5.38739 24.828 4.59766 26.6003 4.3418 28.0202" stroke="#FEBC11" stroke-width="2.30816" stroke-linecap="round" stroke-linejoin="round"/>
<path d="M26.1305 4.00684C22.4686 4.00684 19.5001 6.97538 19.5001 10.6372L19.5003 28.662C19.5003 32.8528 22.8977 36.2503 27.0887 36.2503C31.2797 36.2503 34.6772 32.8528 34.6772 28.662C34.6772 28.4472 34.6683 28.2347 34.6507 28.0243C36.2299 26.3277 37.2264 23.009 37.2264 20.2399C37.2264 16.4667 35.3764 12.798 32.7224 11.356C32.7478 11.1199 32.7609 10.8801 32.7609 10.6372C32.7609 6.97538 29.7924 4.00684 26.1305 4.00684Z" stroke="#FEBC11" stroke-width="2.30816" stroke-linecap="round" stroke-linejoin="round"/>
<path d="M29.2185 15.8624C30.1921 15.6405 32.3981 14.1937 32.731 11.373" stroke="#FEBC11" stroke-width="2.30816" stroke-linecap="round" stroke-linejoin="round"/>
<path d="M25.1542 23.3017C21.1776 22.8578 19.6017 18.6611 19.4993 16.9541" stroke="#FEBC11" stroke-width="2.30816" stroke-linecap="round" stroke-linejoin="round"/>
<path d="M32.6216 24.0459C33.6119 24.828 34.4017 26.6003 34.6577 28.0202" stroke="#FEBC11" stroke-width="2.30816" stroke-linecap="round" stroke-linejoin="round"/>
</svg>

<svg xmlns="http://www.w3.org/2000/svg" width="39" height="39" fill="none" viewBox="0 0 39 39"><path stroke="#febc11" stroke-linecap="round" stroke-linejoin="round" stroke-width="2.308" d="M12.869 4.007a6.63 6.63 0 0 1 6.63 6.63v18.025a7.588 7.588 0 1 1-15.15-.638c-1.58-1.696-2.576-5.015-2.576-7.784 0-3.773 1.85-7.442 4.504-8.884a6.63 6.63 0 0 1 6.592-7.35"/><path stroke="#febc11" stroke-linecap="round" stroke-linejoin="round" stroke-width="2.308" d="M9.78 15.862c-.973-.222-3.179-1.668-3.512-4.489M13.845 23.302c3.977-.444 5.553-4.64 5.655-6.348M6.378 24.046c-.99.782-1.78 2.554-2.036 3.974M26.13 4.007a6.63 6.63 0 0 0-6.63 6.63v18.025a7.588 7.588 0 1 0 15.15-.638c1.58-1.696 2.576-5.015 2.576-7.784 0-3.773-1.85-7.442-4.504-8.884q.039-.354.039-.719a6.63 6.63 0 0 0-6.63-6.63"/><path stroke="#febc11" stroke-linecap="round" stroke-linejoin="round" stroke-width="2.308" d="M29.219 15.862c.973-.222 3.18-1.668 3.512-4.489M25.154 23.302c-3.976-.444-5.552-4.64-5.655-6.348M32.622 24.046c.99.782 1.78 2.554 2.036 3.974"/></svg>
